X: 10853
T: LAYBOURN McDONALD'S REEL
C: Composed by W.B. Laybourn
R: reel
B: K\"ohler's Violin Repository, v.1, 1885 p.85 #3
F: http://www.archive.org/details/klersviolinrepos01edin
Z: 2012 John Chambers <jc:trillian.mit.edu>
M: C|
L: 1/8
K: E
|: ve2(gb) fbeb | Bbcb dbBb | d2(Ad) FdAd | Bdfa (g<e)e2 :|
|: vd2(Ad) FdAd | e2(Be) GeBe | c2(Ac) EcAc | Bdfa (g<e)"_Fine."e2 :|

%%sep 2 1 500

